swiss/communes/0094.svg

<?xml version="1.0" encoding="UTF-8" standalone="no"?>
<!-- Created with Inkscape (http://www.inkscape.org/) -->
<svg
   xmlns:svg="http://www.w3.org/2000/svg"
   xmlns="http://www.w3.org/2000/svg"
   version="1.0"
   width="210.66692"
   height="246.76349"
   id="svg2780">
  <defs
     id="defs2782" />
  <g
     transform="translate(-141.73228,-194.88189)"
     id="layer1">
    <path
       d="M 142.73228,195.88189 L 146.52622,355.26276 C 149.23617,469.10624 344.8953,469.10624 347.60526,355.26276 L 351.3992,195.88189 L 142.73228,195.88189 z "
       style="fill:#000000;fill-opacity:1;fill-rule:evenodd;stroke:#000000;stroke-width:2;stroke-linecap:butt;stroke-miterlimit:4;stroke-dashoffset:0;stroke-opacity:1"
       id="path3282" />
    <path
       d="M 240.47809,258.22987 C 239.42088,233.91395 238.89228,216.11752 244.88316,224.39902 C 250.87404,232.68053 260.03656,252.9438 260.03656,252.9438 L 240.47809,258.22987 z "
       style="fill:#ffffff;fill-opacity:1;fill-rule:evenodd;stroke:#000000;stroke-width:1px;stroke-linecap:butt;stroke-linejoin:miter;stroke-opacity:1"
       id="path15136" />
    <path
       d="M 187.08178,356.82832 C 182.97019,351.09701 175.24537,343.62139 176.24211,330.16524 C 183.24806,342.88252 192.99475,350.45826 204.02655,356.95293 L 187.08178,356.82832 z "
       style="fill:#ffffff;fill-opacity:1;fill-rule:evenodd;stroke:#000000;stroke-width:1px;stroke-linecap:butt;stroke-linejoin:miter;stroke-opacity:1"
       id="path13190" />
    <path
       d="M 172.70067,361.79408 C 170.49814,355.53889 180.64364,355.84444 184.88626,355.75786 C 189.20322,355.66976 212.8843,347.92482 218.1004,345.53813 C 223.24355,343.18481 228.93685,337.25662 223.82698,327.74169 C 218.71712,318.22677 204.88523,312.14779 199.42295,312.50019 C 193.96068,312.8526 186.38398,315.84803 185.50297,316.72905 C 184.62196,317.61006 178.45488,318.66727 178.10247,315.84803 C 177.75007,313.0288 218.2766,298.404 218.2766,298.404 L 252.10745,351.0885 L 172.70067,361.79408 z "
       style="fill:#ffffff;fill-opacity:1;fill-rule:evenodd;stroke:#000000;stroke-width:1px;stroke-linecap:butt;stroke-linejoin:miter;stroke-opacity:1"
       id="path9306" />
    <path
       d="M 177.23887,293.90844 C 175.8727,290.4634 175.55763,280.47641 176.49131,278.45879 C 177.44814,276.39113 177.16824,275.25582 173.87484,278.3342 C 170.45279,281.53285 171.0244,294.85073 174.24861,295.27896 L 177.23887,293.90844 z "
       style="fill:#ffffff;fill-opacity:1;fill-rule:evenodd;stroke:#000000;stroke-width:1px;stroke-linecap:butt;stroke-linejoin:miter;stroke-opacity:1"
       id="path13192" />
    <path
       d="M 233.18151,344.61813 C 218.85321,332.15875 198.61399,335.17322 184.96368,337.51628 C 171.33361,339.85587 165.02866,338.76222 159.67113,335.64737 C 155.85988,333.43152 150.82497,333.40468 155.68413,338.26384 C 160.54329,343.123 162.56551,348.70961 182.34721,346.11326 C 202.28223,343.49678 223.58778,343.99516 233.18151,344.61813 z "
       style="fill:#ffffff;fill-opacity:1;fill-rule:evenodd;stroke:#000000;stroke-width:1px;stroke-linecap:butt;stroke-linejoin:miter;stroke-opacity:1"
       id="path13194" />
    <path
       d="M 196.17713,362.18586 C 187.20638,350.22485 184.34072,342.74923 186.45881,330.66362 C 192.21882,348.11546 199.59822,352.70095 210.63002,359.19562 L 196.17713,362.18586 z "
       style="fill:#ffffff;fill-opacity:1;fill-rule:evenodd;stroke:#000000;stroke-width:1px;stroke-linecap:butt;stroke-linejoin:miter;stroke-opacity:1"
       id="path12219" />
    <path
       d="M 286.0264,408.79477 C 309.54941,392.67225 327.81988,346.30606 331.97021,333.05325 C 336.10957,319.83548 338.95779,302.60984 344.63505,294.8244 C 340.22602,293.55844 335.14011,296.85983 330.15291,298.75641 C 333.20644,293.97652 340.83465,285.42376 346.06604,280.07896 C 339.92833,278.99238 332.07394,282.22276 327.69825,287.12706 C 331.4866,281.07744 338.9752,272.8253 343.99696,268.0972 C 337.41874,268.45772 328.46179,272.43039 321.97168,276.66736 C 327.43395,268.34837 334.30583,261.26279 342.41114,255.93924 C 334.36457,255.99798 328.60863,258.78785 322.41218,262.98734 C 327.02281,256.32102 331.72154,249.7428 337.56558,244.7504 C 329.98888,245.95445 324.0861,249.09672 318.53573,253.47241 C 322.05978,246.60052 326.64103,240.25724 330.86989,234.61877 C 323.41066,238.08408 316.92054,242.95901 309.63751,247.30533 C 314.4537,240.25724 318.12459,233.20914 323.11698,226.51346 C 314.39497,230.53674 306.64207,235.44104 298.18436,239.90484 C 298.36056,231.74079 297.47955,223.31245 297.65576,215.1484 C 293.19196,222.31396 289.43297,231.59395 287.17171,241.31445 C 286.76057,233.62028 286.96614,223.63548 286.555,215.94131 C 282.17931,221.75598 278.24413,228.53978 276.24717,238.49521 C 274.83755,230.3899 275.01375,221.75599 275.01375,212.94588 C 270.05072,220.34637 268.08313,230.56611 266.37984,239.46433 C 265.23452,231.50586 265.05832,221.78535 264.35351,213.73878 C 261.47554,221.31549 258.94997,229.42079 257.39352,238.84762 C 257.21732,231.50585 257.01909,220.09675 255.01479,215.67701 C 254.47172,220.3036 251.46093,231.88052 250.60973,237.26179 C 249.74494,242.729 217.13129,279.10985 210.96421,281.04808 C 203.99887,283.23718 197.97482,283.78185 191.22955,287.39136 C 184.44728,291.02066 171.31869,295.32047 162.33237,294.87996 C 153.43415,294.43946 152.03912,293.55132 152.02453,298.40401 C 152.00994,303.16859 153.09546,302.05186 155.37238,302.89717 C 157.61923,303.73131 159.42503,305.18779 156.60579,307.30222 C 153.78656,309.41665 151.01118,310.16699 155.72478,314.70272 C 160.39414,319.19588 161.34,322.81453 169.55666,320.5174 C 177.75007,318.22677 190.43495,310.56193 201.97789,310.73816 C 213.51914,310.91437 223.59724,320.50055 227.87963,329.32752 C 232.19659,338.22574 231.49178,346.50724 223.73888,349.50268 C 215.98598,352.49812 193.16777,358.04849 185.85537,359.63431 C 178.56074,361.21628 172.5521,360.69153 172.5521,360.69153 C 172.5521,360.69153 172.99375,368.09878 184.62195,367.82772 C 196.25188,367.55662 209.24793,367.39907 211.31661,368.79683 C 213.3853,370.1946 216.19154,372.35025 218.3647,373.8186 C 218.24723,371.99784 218.48218,370.26519 218.36471,368.44443 C 223.21027,370.7938 227.61532,373.23126 231.40367,376.10923 C 231.72671,373.20189 230.46393,370.03025 228.14393,367.29911 C 233.2538,369.85405 238.18747,372.84949 242.76873,376.81404 C 243.29734,373.43683 242.15202,369.26671 239.77329,365.8895 C 248.99454,369.82468 253.54644,382.83429 253.95757,389.23631 C 256.77681,387.26872 258.09833,385.21302 258.97934,380.51429 C 260.00718,389.29504 259.62542,399.3973 258.97934,406.68034 C 261.91605,403.65553 263.53123,400.19022 265.32263,395.13908 C 264.99959,402.83324 263.61934,410.26312 262.85579,417.60488 C 267.93629,411.9664 272.31198,405.79932 274.30894,397.60591 C 274.01527,402.89198 273.8978,408.79476 272.89932,413.99273 C 278.3616,410.40995 281.88564,407.00336 284.52868,395.31528 C 285.64462,397.45908 285.79147,404.62464 286.0264,408.79477 z "
       style="fill:#ffffff;fill-opacity:1;fill-rule:evenodd;stroke:#000000;stroke-width:1px;stroke-linecap:butt;stroke-linejoin:miter;stroke-opacity:1"
       id="path4213" />
    <path
       d="M 189.32898,318.19929 C 197.88638,324.99833 208.08086,328.38828 214.23975,314.44436 C 211.93286,313.06881 209.4588,312.01069 206.86475,311.38186 C 205.72223,316.9329 198.89009,316.75341 192.97935,311.89716 C 186.83696,306.78519 186.45881,298.39381 186.708,292.4133 C 186.95719,286.4328 182.27658,289.7087 181.10128,295.40356 C 179.93133,301.0725 178.75374,309.79705 189.32898,318.19929 z "
       style="fill:#ffffff;fill-opacity:1;fill-rule:evenodd;stroke:#000000;stroke-width:1px;stroke-linecap:butt;stroke-linejoin:miter;stroke-opacity:1"
       id="path18059" />
    <path
       d="M 263.45782,273.47504 C 273.17614,264.50428 280.09454,240.12541 300.46219,225.75559 C 320.77099,211.42729 316.65939,218.90293 315.41345,222.14237 C 314.16751,225.38181 311.44108,233.35406 312.67239,243.6971 C 313.91833,254.16299 314.5413,259.52053 302.08191,269.48803 C 289.62253,279.45554 284.88796,280.70148 284.88796,280.70148 C 291.64681,285.03588 302.01888,295.35079 304.41695,298.68844 C 303.38941,298.67329 301.73891,298.78274 300.83597,298.76759 C 304.03388,303.04531 306.73342,309.69032 308.31161,315.08939 C 306.56729,314.50795 304.82298,313.92651 303.07866,313.34507 C 306.65035,319.90701 308.22854,325.72139 308.56079,330.78821 C 306.9826,329.29308 305.40442,327.79796 303.82623,326.30283 C 305.03064,332.94784 304.73992,339.71744 304.4492,345.61489 C 303.20326,344.20282 301.95732,342.29238 301.08516,340.50653 C 300.87751,346.69469 299.92229,351.88611 298.59329,356.45455 C 297.6796,354.95942 296.76591,353.4643 295.85222,351.96917 C 295.02159,357.61743 292.69584,361.89515 290.61927,366.54666 C 290.45315,365.13459 290.03784,363.09955 289.87172,361.81208 C 287.33831,367.00349 283.30977,370.326 279.53042,373.27472 C 279.48889,372.02878 279.82115,368.78934 279.90421,367.16962 C 277.03855,370.82437 273.42533,373.48238 269.43832,375.14363"
       style="fill:#ffffff;fill-opacity:1;fill-rule:evenodd;stroke:#000000;stroke-width:1px;stroke-linecap:butt;stroke-linejoin:miter;stroke-opacity:1"
       id="path7360" />
    <path
       d="M 276.42337,275.3215 C 293.33879,257.34886 289.48324,246.89674 299.50588,233.56155 C 309.4437,220.33922 312.89725,217.87954 312.89725,217.87954"
       style="fill:#ffffff;fill-opacity:1;fill-rule:evenodd;stroke:#000000;stroke-width:1px;stroke-linecap:butt;stroke-linejoin:miter;stroke-opacity:1"
       id="path8331" />
    <path
       d="M 238.89228,284.30782 C 248.75961,277.96453 253.34087,285.71743 254.92669,288.36047"
       style="fill:none;fill-opacity:1;fill-rule:evenodd;stroke:#000000;stroke-width:1px;stroke-linecap:butt;stroke-linejoin:miter;stroke-opacity:1"
       id="path8333" />
    <path
       d="M 273.28981 365.96603 A 3.9645524 3.9645524 0 1 1  265.3607,365.96603 A 3.9645524 3.9645524 0 1 1  273.28981 365.96603 z"
       transform="matrix(0.8222222,0,0,0.7111111,23.526053,26.53215)"
       style="opacity:1;fill:none;fill-opacity:1;fill-rule:evenodd;stroke:#000000;stroke-width:1.01716685;stroke-linecap:round;stroke-linejoin:miter;stroke-miterlimit:4;stroke-dasharray:none;stroke-dashoffset:0;stroke-opacity:1"
       id="path8335" />
    <path
       d="M 157.53792,312.17472 C 161.40033,314.16822 162.66138,310.60401 162.91057,306.49241 C 163.15976,302.38081 160.79248,296.77409 158.67438,295.77734 C 156.55628,294.78059 154.32455,293.7829 153.25898,294.50742 C 152.13241,295.27342 152.15159,296.99812 152.19412,298.669 C 152.23666,300.33997 151.72318,301.92408 153.1495,302.21973 C 154.49124,302.49785 158.42519,305.63537 158.67438,302.70925 C 158.57006,304.97135 156.62301,306.4408 159.23948,306.5654 C 160.80366,306.63988 160.43274,311.05392 159.64763,312.5792 C 158.41463,312.90052 158.55683,312.6219 157.53792,312.17472 z "
       style="fill:#ffffff;fill-opacity:1;fill-rule:evenodd;stroke:#000000;stroke-width:1px;stroke-linecap:butt;stroke-linejoin:miter;stroke-opacity:1"
       id="path14165" />
  </g>
</svg>

<svg xmlns="http://www.w3.org/2000/svg" version="1.0" width="210.667" height="246.763"><path d="m142.732 195.882 3.794 159.38c2.71 113.844 198.37 113.844 201.08 0l3.793-159.38H142.732z" style="fill:#000;fill-opacity:1;fill-rule:evenodd;stroke:#000;stroke-width:2;stroke-linecap:butt;stroke-miterlimit:4;stroke-dashoffset:0;stroke-opacity:1" transform="translate(-141.732 -194.882)"/><path d="M240.478 258.23c-1.057-24.316-1.586-42.112 4.405-33.831 5.991 8.282 15.154 28.545 15.154 28.545l-19.559 5.286zM187.082 356.828c-4.112-5.731-11.837-13.207-10.84-26.663 7.006 12.718 16.753 20.293 27.785 26.788l-16.945-.125z" style="fill:#fff;fill-opacity:1;fill-rule:evenodd;stroke:#000;stroke-width:1px;stroke-linecap:butt;stroke-linejoin:miter;stroke-opacity:1" transform="translate(-141.732 -194.882)"/><path d="M172.7 361.794c-2.202-6.255 7.944-5.95 12.186-6.036 4.317-.088 27.998-7.833 33.214-10.22 5.144-2.353 10.837-8.281 5.727-17.796-5.11-9.515-18.942-15.594-24.404-15.242-5.462.353-13.039 3.348-13.92 4.229-.881.881-7.048 1.938-7.4-.881-.353-2.82 40.174-17.444 40.174-17.444l33.83 52.685-79.406 10.705zM177.239 293.908c-1.366-3.445-1.681-13.432-.748-15.45.957-2.067.677-3.202-2.616-.124-3.422 3.199-2.85 16.517.374 16.945l2.99-1.37z" style="fill:#fff;fill-opacity:1;fill-rule:evenodd;stroke:#000;stroke-width:1px;stroke-linecap:butt;stroke-linejoin:miter;stroke-opacity:1" transform="translate(-141.732 -194.882)"/><path d="M233.182 344.618c-14.329-12.46-34.568-9.445-48.218-7.102-13.63 2.34-19.935 1.246-25.293-1.869-3.811-2.215-8.846-2.242-3.987 2.617 4.86 4.859 6.882 10.446 26.663 7.85 19.935-2.617 41.24-2.119 50.835-1.496z" style="fill:#fff;fill-opacity:1;fill-rule:evenodd;stroke:#000;stroke-width:1px;stroke-linecap:butt;stroke-linejoin:miter;stroke-opacity:1" transform="translate(-141.732 -194.882)"/><path d="M196.177 362.186c-8.97-11.961-11.836-19.437-9.718-31.522 5.76 17.451 13.14 22.037 24.171 28.532l-14.453 2.99z" style="fill:#fff;fill-opacity:1;fill-rule:evenodd;stroke:#000;stroke-width:1px;stroke-linecap:butt;stroke-linejoin:miter;stroke-opacity:1" transform="translate(-141.732 -194.882)"/><path d="M286.026 408.795c23.523-16.123 41.794-62.489 45.944-75.742 4.14-13.218 6.988-30.443 12.665-38.229-4.409-1.266-9.495 2.036-14.482 3.932 3.053-4.78 10.682-13.332 15.913-18.677-6.138-1.087-13.992 2.144-18.368 7.048 3.789-6.05 11.277-14.302 16.299-19.03-6.578.36-15.535 4.333-22.025 8.57 5.462-8.319 12.334-15.404 20.44-20.728-8.047.059-13.803 2.849-20 7.048 4.61-6.666 9.31-13.244 15.154-18.237-7.577 1.204-13.48 4.347-19.03 8.722 3.524-6.871 8.105-13.215 12.334-18.853-7.46 3.465-13.95 8.34-21.232 12.686 4.816-7.048 8.487-14.096 13.479-20.792-8.722 4.024-16.475 8.928-24.933 13.392.177-8.164-.704-16.593-.528-24.757-4.464 7.166-8.223 16.446-10.484 26.166-.411-7.694-.206-17.679-.617-25.373-4.376 5.815-8.31 12.599-10.308 22.554-1.41-8.105-1.233-16.739-1.233-25.55-4.963 7.401-6.93 17.621-8.634 26.52-1.145-7.96-1.322-17.68-2.026-25.726-2.878 7.576-5.404 15.682-6.96 25.109-.177-7.342-.375-18.751-2.38-23.171-.542 4.627-3.553 16.204-4.404 21.585-.865 5.467-33.479 41.848-39.646 43.786-6.965 2.19-12.99 2.734-19.734 6.343-6.783 3.63-19.911 7.93-28.898 7.489-8.898-.44-10.293-1.329-10.307 3.524-.015 4.765 1.07 3.648 3.347 4.493 2.247.834 4.053 2.29 1.234 4.405-2.82 2.115-5.595 2.865-.881 7.4 4.67 4.494 5.615 8.113 13.832 5.815 8.193-2.29 20.878-9.955 32.42-9.779 11.542.176 21.62 9.763 25.903 18.59 4.317 8.898 3.612 17.18-4.141 20.175-7.753 2.995-30.571 8.545-37.884 10.131-7.294 1.582-13.303 1.058-13.303 1.058s.442 7.407 12.07 7.136c11.63-.271 24.626-.429 26.695.969 2.068 1.398 4.875 3.553 7.048 5.022-.118-1.821.117-3.554 0-5.375 4.845 2.35 9.25 4.787 13.039 7.665.323-2.907-.94-6.079-3.26-8.81 5.11 2.555 10.043 5.55 14.625 9.515.528-3.377-.617-7.547-2.996-10.925 9.222 3.936 13.773 16.945 14.185 23.347 2.819-1.967 4.14-4.023 5.021-8.722 1.028 8.781.646 18.883 0 26.166 2.937-3.024 4.552-6.49 6.344-11.54-.323 7.693-1.704 15.123-2.467 22.465 5.08-5.639 9.456-11.806 11.453-20-.294 5.287-.411 11.19-1.41 16.388 5.463-3.583 8.987-6.99 11.63-18.678 1.116 2.144 1.262 9.31 1.497 13.48z" style="fill:#fff;fill-opacity:1;fill-rule:evenodd;stroke:#000;stroke-width:1px;stroke-linecap:butt;stroke-linejoin:miter;stroke-opacity:1" transform="translate(-141.732 -194.882)"/><path d="M189.329 318.2c8.557 6.798 18.752 10.188 24.91-3.756-2.306-1.375-4.78-2.433-7.374-3.062-1.143 5.55-7.975 5.371-13.886.515-6.142-5.112-6.52-13.503-6.271-19.484.25-5.98-4.431-2.704-5.607 2.99-1.17 5.67-2.347 14.394 8.228 22.796zM263.458 273.475c9.718-8.97 16.637-33.35 37.004-47.72 20.309-14.328 16.197-6.852 14.951-3.613-1.245 3.24-3.972 11.212-2.74 21.555 1.245 10.466 1.868 15.824-10.591 25.791-12.46 9.968-17.194 11.213-17.194 11.213 6.759 4.335 17.13 14.65 19.529 17.987-1.028-.015-2.678.095-3.581.08 3.198 4.277 5.897 10.922 7.476 16.321l-5.233-1.744c3.571 6.562 5.15 12.376 5.482 17.443l-4.735-4.485c1.205 6.645.914 13.414.623 19.312-1.246-1.412-2.492-3.323-3.364-5.108-.207 6.188-1.163 11.38-2.492 15.948l-2.74-4.486c-.831 5.648-3.157 9.926-5.234 14.578-.166-1.412-.581-3.447-.747-4.735-2.534 5.191-6.562 8.514-10.342 11.463-.041-1.246.291-4.486.374-6.105a25.891 25.891 0 0 1-10.466 7.974" style="fill:#fff;fill-opacity:1;fill-rule:evenodd;stroke:#000;stroke-width:1px;stroke-linecap:butt;stroke-linejoin:miter;stroke-opacity:1" transform="translate(-141.732 -194.882)"/><path d="M276.423 275.322c16.916-17.973 13.06-28.425 23.083-41.76 9.938-13.223 13.391-15.682 13.391-15.682" style="fill:#fff;fill-opacity:1;fill-rule:evenodd;stroke:#000;stroke-width:1px;stroke-linecap:butt;stroke-linejoin:miter;stroke-opacity:1" transform="translate(-141.732 -194.882)"/><path d="M238.892 284.308c9.868-6.343 14.449 1.41 16.035 4.052" style="fill:none;fill-opacity:1;fill-rule:evenodd;stroke:#000;stroke-width:1px;stroke-linecap:butt;stroke-linejoin:miter;stroke-opacity:1" transform="translate(-141.732 -194.882)"/><path d="M273.29 365.966a3.965 3.965 0 1 1-7.93 0 3.965 3.965 0 1 1 7.93 0z" transform="matrix(.82222 0 0 .71111 -118.206 -168.35)" style="opacity:1;fill:none;fill-opacity:1;fill-rule:evenodd;stroke:#000;stroke-width:1.01716685;stroke-linecap:round;stroke-linejoin:miter;stroke-miterlimit:4;stroke-dasharray:none;stroke-dashoffset:0;stroke-opacity:1"/><path d="M157.538 312.175c3.862 1.993 5.123-1.571 5.373-5.683.249-4.111-2.119-9.718-4.237-10.715-2.118-.996-4.35-1.994-5.415-1.27-1.127.766-1.107 2.491-1.065 4.162.043 1.671-.47 3.255.956 3.55 1.341.279 5.275 3.416 5.524.49-.104 2.262-2.051 3.732.565 3.856 1.565.075 1.194 4.489.409 6.014-1.233.322-1.091.043-2.11-.404z" style="fill:#fff;fill-opacity:1;fill-rule:evenodd;stroke:#000;stroke-width:1px;stroke-linecap:butt;stroke-linejoin:miter;stroke-opacity:1" transform="translate(-141.732 -194.882)"/></svg>
